images/icons/PBS-component_icon.svg

<?xml version="1.0" encoding="UTF-8" standalone="no"?>
<svg width="256px" height="256px" viewBox="0 0 256 256" version="1.1" xmlns="http://www.w3.org/2000/svg" xmlns:xlink="http://www.w3.org/1999/xlink">
    <!-- Generator: Sketch 39.1 (31720) - http://www.bohemiancoding.com/sketch -->
    <title>PBS-component_icon</title>
    <desc>Created with Sketch.</desc>
    <defs></defs>
    <g id="Page-1" stroke="none" stroke-width="1" fill="none" fill-rule="evenodd">
        <g id="PBS-component_icon" fill="#222222">
            <g id="Group" transform="translate(194.000000, 160.000000)">
                <rect id="Rectangle" x="13.8541667" y="0" width="7.29166667" height="35" rx="2"></rect>
                <rect id="Rectangle" transform="translate(17.500000, 17.500000) rotate(-270.000000) translate(-17.500000, -17.500000) " x="13.8541667" y="0" width="7.29166667" height="35" rx="2"></rect>
            </g>
            <path d="M245.438984,210.666946 C244.960796,211.209472 244.358279,211.480735 243.631433,211.480735 L179.823934,211.480735 C179.133431,211.480735 178.540477,211.209472 178.043162,210.666946 C177.545846,210.124419 177.297188,209.477562 177.297188,208.726372 L177.297188,145.37602 C177.297188,144.62483 177.545846,143.977972 178.043162,143.435446 C178.540477,142.89292 179.133431,142.621657 179.823934,142.621657 L243.631433,142.621657 C244.358279,142.621657 244.960796,142.89292 245.438984,143.435446 C245.917172,143.977972 246.156266,144.62483 246.156266,145.37602 L246.156266,208.726372 C246.156266,209.477562 245.917172,210.124419 245.438984,210.666946 Z M236.158822,198.680482 C236.158822,199.193429 235.989154,199.635134 235.649819,200.005596 C235.310485,200.376058 234.882923,200.561289 234.367135,200.561289 L189.087677,200.561289 C188.597678,200.561289 188.176903,200.376058 187.823995,200.005596 C187.471087,199.635134 187.294633,199.193429 187.294633,198.680482 L187.294633,155.42191 C187.294633,154.908963 187.471087,154.467258 187.823995,154.096796 C188.176903,153.726334 188.597678,153.541103 189.087677,153.541103 L234.367135,153.541103 C234.882923,153.541103 235.310485,153.726334 235.649819,154.096796 C235.989154,154.467258 236.158822,154.908963 236.158822,155.42191 L236.158822,198.680482 Z" id="Combined-Shape"></path>
            <rect id="Path" x="94.6662954" y="142.771816" width="68.8590778" height="68.8590773" rx="2"></rect>
            <rect id="Path" x="94.6662954" y="46" width="151.489971" height="82.630893" rx="2"></rect>
            <rect id="Path-Copy" x="12" y="178.937104" width="68.8590778" height="20" rx="2"></rect>
            <rect id="Path" x="12" y="144" width="68.8590778" height="20" rx="2"></rect>
            <rect id="Path" x="12" y="46.369107" width="68.8590778" height="82.630893" rx="2"></rect>
        </g>
    </g>
</svg>

<svg width="256" height="256" viewBox="0 0 256 256" xmlns="http://www.w3.org/2000/svg"><title>PBS-component_icon</title><g fill="#222" fill-rule="evenodd"><g transform="translate(194 160)"><rect x="13.854" width="7.292" height="35" rx="2"/><rect transform="rotate(90 17.5 17.5)" x="13.854" width="7.292" height="35" rx="2"/></g><path d="M245.439 210.667a2.307 2.307 0 0 1-1.808.814h-63.807c-.69 0-1.284-.272-1.78-.814a2.774 2.774 0 0 1-.747-1.94v-63.351c0-.751.249-1.398.746-1.94.497-.543 1.09-.814 1.78-.814h63.808c.727 0 1.33.27 1.808.813.478.543.717 1.19.717 1.941v63.35c0 .752-.239 1.398-.717 1.94zm-9.28-11.987c0 .513-.17.955-.51 1.326-.339.37-.766.555-1.282.555h-45.28c-.49 0-.91-.185-1.263-.555a1.855 1.855 0 0 1-.53-1.326v-43.258c0-.513.177-.955.53-1.325.353-.37.774-.556 1.264-.556h45.28c.515 0 .942.185 1.282.556.34.37.509.812.509 1.325v43.258z"/><rect x="94.666" y="142.772" width="68.859" height="68.859" rx="2"/><rect x="94.666" y="46" width="151.49" height="82.631" rx="2"/><rect x="12" y="178.937" width="68.859" height="20" rx="2"/><rect x="12" y="144" width="68.859" height="20" rx="2"/><rect x="12" y="46.369" width="68.859" height="82.631" rx="2"/></g></svg>
